site/images/billboards/taboola.svg

<svg viewBox="0 0 118.49 119.45" xmlns="http://www.w3.org/2000/svg"><path d="m109.25 14.5h-17.37l-12.55-12.5a6.66 6.66 0 0 0 -11.33 3.78h-2.15a.88.88 0 0 0 -.88.88v1.76a.88.88 0 0 0  .88.88h7.75a.88.88 0 0 0  .88-.88v-1.76a.88.88 0 0 0 -.88-.88h-2a3.14 3.14 0 0 1 5.23-1.34l10.07 10.06h-22.4l-12.55-12.5a6.66 6.66 0 0 0 -11.31 3.78h-2.18a.88.88 0 0 0 -.88.88v1.76a.88.88 0 0 0  .88.88h7.75a.88.88 0 0 0  .88-.88v-1.76a.88.88 0 0 0 -.88-.88h-2a3.14 3.14 0 0 1 5.23-1.34l10.07 10.06h-22.4l-12.55-12.5a6.66 6.66 0 0 0 -11.31 3.78h-2.17a.88.88 0 0 0 -.88.88v1.76a.88.88 0 0 0  .88.88h7.75a.88.88 0 0 0  .88-.88v-1.76a.88.88 0 0 0 -.88-.88h-2a3.14 3.14 0 0 1 5.23-1.34l10.07 10.06h-22.9a9.23 9.23 0 0 0 -9.23 9.23v48.49a9.23 9.23 0 0 0 9.23 9.23h45.61v31.39h-8.84a3.69 3.69 0 0 0 -3.69 3.69v2.92h33.86v-2.92a3.69 3.69 0 0 0 -3.69-3.69h-8.83v-31.39h45.61a9.23 9.23 0 0 0 9.23-9.23v-48.49a9.23 9.23 0 0 0 -9.24-9.23z" fill="#26404c"/><rect fill="#154a99" height="58.14" rx="4.83" width="109.68" x="4.4" y="18.9"/><path d="m15.1 41.36h-5.85v-5.36l18.14.11v5.36h-5.85l-.09 15.54-6.45-.11zm0 0" fill="#fff"/><path d="m32.72 50.19a9.9 9.9 0 0 1 -2.29.72c-1.29.29-2 .6-2 1.63a1.67 1.67 0 0 0 1.81 1.42 2.3 2.3 0 0 0  2.44-2.36zm5.54 3.46a6.14 6.14 0 0 0  .68 3.4l-5.94-.05a4 4 0 0 1 -.2-1.43h-.06a6.17 6.17 0 0 1 -4.9 1.79c-2.93 0-5.35-1.44-5.33-4.62 0-4.8 5.65-4.59 8.6-5.13.79-.14 1.58-.37 1.59-1.34s-1-1.41-1.89-1.42c-1.78 0-2.14.9-2.17 1.54h-5.38c.2-4.27 4.24-5 7.84-4.93 7.26 0 7.18 3.06 7.16 6zm0 0" fill="#fff"/><path d="m47.19 45.74c-2.08 0-2.56 1.95-2.57 3.73s.45 3.78 2.52 3.79 2.56-1.95 2.57-3.76-.45-3.75-2.52-3.76m-8.08-9.59h5.79v7.38h.06a5 5 0 0 1 4.17-2c5.09 0 6.44 4.37 6.42 7.94 0 3.8-2.12 8-6.43 8-2.84 0-3.71-1.11-4.44-2.08h-.06v1.67l-5.62-.06zm0 0" fill="#fff"/><path d="m63.64 40.19c-2.2 0-2.5 2.12-2.51 3.73s.27 3.78 2.47 3.79 2.5-2.15 2.51-3.76-.27-3.75-2.46-3.76m-.07 11.73c-5.71 0-8.26-3.82-8.23-8s2.65-7.98 8.31-7.92 8.26 3.79 8.24 8-2.62 8-8.33 7.94" fill="#fff"/><path d="m78 40.28c-2.19 0-2.5 2.12-2.51 3.73s.27 3.78 2.46 3.79 2.5-2.15 2.51-3.76-.27-3.75-2.47-3.76m.01 11.72c-5.7 0-8.26-3.83-8.23-8s2.57-8 8.23-7.93 8.26 3.79 8.24 8-2.58 7.93-8.24 7.93" fill="#fff"/><path d="m86.9 36.43h5.79l-.12 20.89h-5.79zm0 0" fill="#fff"/><path d="m103.13 50.6a9.94 9.94 0 0 1 -2.28.72c-1.29.29-2 .61-2 1.63a1.67 1.67 0 0 0 1.81 1.41 2.3 2.3 0 0 0  2.47-2.36zm5.54 3.45a6.15 6.15 0 0 0  .68 3.4h-5.91a4.05 4.05 0 0 1 -.2-1.43h-.06a6.16 6.16 0 0 1 -4.9 1.79c-2.93 0-5.35-1.44-5.33-4.63 0-4.8 5.64-4.59 8.6-5.13.79-.14 1.58-.37 1.59-1.34s-1-1.41-1.89-1.42c-1.79 0-2.14.89-2.17 1.54h-5.39c.2-4.27 4.24-5 7.84-4.93 7.26 0 7.18 3.05 7.16 6zm0 0" fill="#fff"/><path d="m57.51 51.82a31.7 31.7 0 0 0 13 2.68 33.76 33.76 0 0 0  13.3-2.5v5.06a29.39 29.39 0 0 1 -13.27 3 28.37 28.37 0 0 1 -13-3.18zm0 0" fill="#fff"/></svg>

<svg xmlns="http://www.w3.org/2000/svg" viewBox="0 0 118.49 119.45"><defs><style>.cls-1{fill:#26404c;}.cls-2{fill:#154a99;}.cls-3{fill:#fff;}</style></defs><title>taboola</title><g id="Layer_2" data-name="Layer 2"><g id="Graphics"><path class="cls-1" d="M109.25,14.5H91.88L79.33,2A6.66,6.66,0,0,0,68,5.78H65.85a.88.88,0,0,0-.88.88V8.42a.88.88,0,0,0,.88.88H73.6a.88.88,0,0,0,.88-.88V6.66a.88.88,0,0,0-.88-.88h-2a3.14,3.14,0,0,1,5.23-1.34L86.9,14.5H64.5L51.95,2A6.66,6.66,0,0,0,40.64,5.78H38.46a.88.88,0,0,0-.88.88V8.42a.88.88,0,0,0,.88.88h7.75a.88.88,0,0,0,.88-.88V6.66a.88.88,0,0,0-.88-.88h-2a3.14,3.14,0,0,1,5.23-1.34L59.51,14.5H37.11L24.56,2A6.66,6.66,0,0,0,13.25,5.78H11.08a.88.88,0,0,0-.88.88V8.42a.88.88,0,0,0,.88.88h7.75a.88.88,0,0,0,.88-.88V6.66a.88.88,0,0,0-.88-.88h-2a3.14,3.14,0,0,1,5.23-1.34L32.13,14.5H9.23A9.23,9.23,0,0,0,0,23.73V72.22a9.23,9.23,0,0,0,9.23,9.23H54.84v31.39H46a3.69,3.69,0,0,0-3.69,3.69v2.92H76.17v-2.92a3.69,3.69,0,0,0-3.69-3.69H63.65V81.45h45.61a9.23,9.23,0,0,0,9.23-9.23V23.73A9.23,9.23,0,0,0,109.25,14.5Z"/><rect class="cls-2" x="4.4" y="18.9" width="109.68" height="58.14" rx="4.83" ry="4.83"/><path class="cls-3" d="M15.1,41.36l-5.85,0,0-5.36,18.14.11,0,5.36-5.85,0-.09,15.54L15,56.9Zm0,0"/><path class="cls-3" d="M32.72,50.19a9.9,9.9,0,0,1-2.29.72c-1.29.29-2,.6-2,1.63a1.67,1.67,0,0,0,1.81,1.42,2.3,2.3,0,0,0,2.44-2.36Zm5.54,3.46a6.14,6.14,0,0,0,.68,3.4L33,57a4,4,0,0,1-.2-1.43h-.06a6.17,6.17,0,0,1-4.9,1.79c-2.93,0-5.35-1.44-5.33-4.62,0-4.8,5.65-4.59,8.6-5.13.79-.14,1.58-.37,1.59-1.34s-1-1.41-1.89-1.42c-1.78,0-2.14.9-2.17,1.54l-5.38,0c.2-4.27,4.24-5,7.84-4.93,7.26,0,7.18,3.06,7.16,6Zm0,0"/><path class="cls-3" d="M47.19,45.74c-2.08,0-2.56,1.95-2.57,3.73s.45,3.78,2.52,3.79,2.56-1.95,2.57-3.76-.45-3.75-2.52-3.76m-8.08-9.59,5.79,0,0,7.38h.06a5,5,0,0,1,4.17-2c5.09,0,6.44,4.37,6.42,7.94,0,3.8-2.12,8-6.43,8-2.84,0-3.71-1.11-4.44-2.08h-.06v1.67L39,57Zm0,0"/><path class="cls-3" d="M63.64,40.19c-2.2,0-2.5,2.12-2.51,3.73s.27,3.78,2.47,3.79,2.5-2.15,2.51-3.76-.27-3.75-2.46-3.76m-.07,11.73c-5.71,0-8.26-3.82-8.23-8S58,35.94,63.66,36s8.26,3.79,8.24,8-2.62,8-8.33,7.94"/><path class="cls-3" d="M78,40.28c-2.19,0-2.5,2.12-2.51,3.73s.27,3.78,2.46,3.79,2.5-2.15,2.51-3.76-.27-3.75-2.47-3.76M78,52c-5.7,0-8.26-3.83-8.23-8S72.34,36,78,36.07s8.26,3.79,8.24,8S83.66,52,78,52"/><path class="cls-3" d="M86.9,36.43l5.79,0-.12,20.89-5.79,0Zm0,0"/><path class="cls-3" d="M103.13,50.6a9.94,9.94,0,0,1-2.28.72c-1.29.29-2,.61-2,1.63a1.67,1.67,0,0,0,1.81,1.41A2.3,2.3,0,0,0,103.13,52Zm5.54,3.45a6.15,6.15,0,0,0,.68,3.4l-5.91,0a4.05,4.05,0,0,1-.2-1.43h-.06a6.16,6.16,0,0,1-4.9,1.79c-2.93,0-5.35-1.44-5.33-4.63,0-4.8,5.64-4.59,8.6-5.13.79-.14,1.58-.37,1.59-1.34s-1-1.41-1.89-1.42c-1.79,0-2.14.89-2.17,1.54l-5.39,0c.2-4.27,4.24-5,7.84-4.93,7.26,0,7.18,3.05,7.16,6Zm0,0"/><path class="cls-3" d="M57.51,51.82a31.7,31.7,0,0,0,13,2.68A33.76,33.76,0,0,0,83.81,52l0,5.06a29.39,29.39,0,0,1-13.27,3,28.37,28.37,0,0,1-13-3.18Zm0,0"/></g></g></svg>
